mediabuilder/img/social/tg.svg

<svg width="37" height="36" viewBox="0 0 37 36" fill="none" xmlns="http://www.w3.org/2000/svg">
<circle cx="18.75" cy="18" r="13.5" fill="white"/>
<path fill-rule="evenodd" clip-rule="evenodd" d="M33.6004 18.0001C33.6004 26.2011 26.9513 32.8501 18.7504 32.8501C10.5495 32.8501 3.90039 26.2011 3.90039 18.0001C3.90039 9.79923 10.5495 3.15015 18.7504 3.15015C26.9513 3.15015 33.6004 9.79923 33.6004 18.0001ZM19.2825 14.1132C17.8384 14.7133 14.9513 15.957 10.6225 17.843C9.91959 18.1227 9.55082 18.3961 9.5174 18.6634C9.46048 19.1164 10.0273 19.2946 10.797 19.5359C10.9022 19.5693 11.0111 19.6027 11.1224 19.6398C11.881 19.8861 12.9007 20.1744 13.4304 20.1856C13.9118 20.1955 14.4488 19.9975 15.0416 19.5916C19.0858 16.8604 21.1734 15.4806 21.3046 15.4509C21.3974 15.4299 21.5261 15.4026 21.6127 15.4806C21.6994 15.5573 21.6907 15.7033 21.682 15.7429C21.6251 15.9818 19.405 18.0472 18.2542 19.1164C17.8953 19.4493 17.6416 19.6856 17.5896 19.7401C17.4733 19.8601 17.3545 19.9752 17.2406 20.0853C16.5353 20.7635 16.0081 21.2733 17.2703 22.1049C17.8767 22.5046 18.3618 22.8351 18.8457 23.1642C19.3741 23.5243 19.9013 23.8832 20.5844 24.3312C20.7576 24.445 20.9234 24.5626 21.0856 24.6777C21.7006 25.117 22.2538 25.5105 22.9369 25.4487C23.3329 25.4115 23.7437 25.039 23.9516 23.9265C24.4429 21.2956 25.4106 15.5982 25.6346 13.2494C25.6482 13.0544 25.6399 12.8584 25.6099 12.6653C25.5918 12.5093 25.5159 12.3657 25.397 12.2631C25.22 12.1183 24.9453 12.0874 24.8216 12.0898C24.2635 12.0997 23.4071 12.398 19.2825 14.1132Z" fill="#29AAEC"/>
</svg>

<svg width="37" height="36" fill="none" xmlns="http://www.w3.org/2000/svg"><circle cx="18.75" cy="18" r="13.5" fill="#fff"/><path fill-rule="evenodd" clip-rule="evenodd" d="M33.6 18c0 8.201-6.649 14.85-14.85 14.85-8.2 0-14.85-6.649-14.85-14.85 0-8.2 6.65-14.85 14.85-14.85C26.951 3.15 33.6 9.8 33.6 18zm-14.318-3.887c-1.444.6-4.33 1.844-8.66 3.73-.702.28-1.071.553-1.105.82-.057.453.51.632 1.28.873.105.033.214.067.325.104.759.246 1.779.534 2.308.546.482.01 1.019-.189 1.612-.594 4.044-2.732 6.131-4.111 6.263-4.141.092-.021.221-.048.308.03.086.076.078.222.069.262-.057.239-2.277 2.304-3.428 3.373-.359.333-.612.57-.664.624-.117.12-.235.235-.35.345-.705.678-1.232 1.188.03 2.02.607.4 1.092.73 1.576 1.06.528.36 1.055.718 1.738 1.166.174.114.34.232.502.347.615.439 1.168.832 1.85.77.397-.037.808-.409 1.016-1.521.49-2.631 1.459-8.329 1.683-10.678a2.619 2.619 0 00-.025-.584.627.627 0 00-.213-.402c-.177-.145-.452-.176-.575-.173-.558.01-1.415.308-5.54 2.023z" fill="#29AAEC"/></svg>
